**kern	**kern	**dynam
*part1	*part1	*part1
*staff2	*staff1	*
*I"Piano	*	*
*clefF4	*clefG2	*
*k[b-]	*k[b-]	*
=1	=1	=1
(8FL 8B- 8d	[2.g	pp
8G 8c 8e	.	.
!	!	!LO:DY:a
8A 8d 8f	.	<
8FJ 8B- 8d	.	.
8G) 8c 8e	.	.
8r	.	[[
=	=	=
(4F 4B- 4d	4g]	.
4E 4A 4c	(4f	>
4D) 4G 4B-	[4d)	.
=	=	=
(2.E 2.A 2.c	4d]	]
.	(4f	>
.	[4d)	.
=	=	=
4D) 4G 4B-	4d]	]
4r	(4f	.
4r	4d	.
=	=	=
!	!LO:TX:a:B:t=Rall.	!
2.r	[2.c)	.
=	=	=
[2.C [2.F [2.A	4c]	.
.	4r	.
.	4r	.
=	=	=
4C] 4F] 4A]	2.r	.
4r	.	.
4r	.	.
=	=	=
2.GG 2.D	2.G;, 2.Bn 2.d	.
=	=	=
2.GG; 2.D	2.G; 2.Bn 2.d	.
==	==	==
*-	*-	*-
!!!system-decoration: {(s1,s2)}
